X:7
T: Daar was laatst een meisje loos
S: Samenspel Kinderdagverblijf VUB 4 oktober 2008
M:3/8
L:1/8
K:G
"G g"B2"d"A|"Gg"G2"g"D|"G g"B2"d"A|"G g g"G3|
"G"B "d"A"d"B|"D d"d2"d"d|"D"c "d" B "d"A|"G g" B2 "g"G|
"G g"B2"d"A|"Gg"G2"g"D|"G g"B2"d"A|"G g g"G3|
"G"B "d"A "d/g" B|"G"d"g"e"g"d|"D"c"d"B"d"A|"G g g"G3||
W:
W: Daar was laatst een meis-je loos
W: Die wou gaan va-ren, Die wou gaan va-ren
W: Daar was laatst een meis-je loos
W: Die wou gaan va-ren Als li-cht ma-troos
